!!!COM: Stravinsky, Igor (Fyodorovich)
!!!OTL: Pulcinella, Suite for Orchestra
!!!OMV: IV: Tarantella
!!!example: 381
!!!work: Str-17
**kern	**kern	**kern	**kern	**kern	**kern	**kern	**kern	**kern	**kern	**kern	**kern
*part12	*part11	*part10	*part9	*part8	*part7	*part6	*part5	*part4	*part3	*part2	*part1
*staff12	*staff11	*staff10	*staff9	*staff8	*staff7	*staff6	*staff5	*staff4	*staff3	*staff2	*staff1
*I"Violoncello	*I"Violoncello	*I"Viola	*I"Viola	*I"Violin II	*I"Violin I	*I"Violoncello	*I"Viola	*I"Violin	*I"Violin	*I"Flute	*I"Flute
*I'Vc.	*I'Vc.	*I'Vla.	*I'Vla.	*I'Vln. II	*I'Vln. I	*I'Vc.	*I'Vla.	*I'Vln.	*I'Vln.	*I'Fl.	*I'Fl.
*clefF4	*clefF4	*clefC3	*clefC3	*clefG2	*clefG2	*clefF4	*clefC3	*clefG2	*clefG2	*clefG2	*clefG2
*k[b-e-]	*k[b-e-]	*k[b-e-]	*k[b-e-]	*k[b-e-]	*k[b-e-]	*k[b-e-]	*k[b-e-]	*k[b-e-]	*k[b-e-]	*k[b-e-]	*k[b-e-]
*B-:	*B-:	*B-:	*B-:	*B-:	*B-:	*B-:	*B-:	*B-:	*B-:	*B-:	*B-:
*M3/4	*M3/4	*M3/4	*M3/4	*M3/4	*M3/4	*M3/4	*M3/4	*M3/4	*M3/4	*M3/4	*M3/4
*MM264	*MM264	*MM264	*MM264	*MM264	*MM264	*MM264	*MM264	*MM264	*MM264	*MM264	*MM264
=68	=68	=68	=68	=68	=68	=68	=68	=68	=68	=68	=68
!	!	!	!	!	!	!LO:TX:t=pizz.	!LO:TX:t=pizz.	!LO:TX:t=pizz.	!LO:TX:t=pizz.	!	!
8BB-'	8BB-'L	8F'L	8E-'	8ddL	8ffL	4BB-	4E-	4B-	4f	8f`L	8b-`L
8r	8B-'J	8G'J	8r	8ccJ	8ffJ	.	.	.	.	8g`J	8ee-`J
8BB-'L	8r	8G'L	8E-'L	8b-L	8ffL	4BB-	4G	4B-	4f	8b-`L	8ff`L
8B-'J	8F'	8F'J	8B-'J	8ccJ	8ffJ	.	.	.	.	8ee-`J	8gg`J
8BB-'	8F'L	4r	8E-'L	8ddL	8ggL	4BB-	4E-	4B-	4f	8ff`L	8bb-`L
8r	8B-'J	.	8G'J	8ee-J	8aaJ	.	.	.	.	8ee-`J	8gg`J
=69	=69	=69	=69	=69	=69	=69	=69	=69	=69	=69	=69
8BB-'	8BB-'L	8G'L	8E-'	8ee-L	8bb-L	4BB-	4G	4B-	4f	8b-L	8ffL
8r	8B-'J	8F'J	8r	8ee-J	8bb-J	.	.	.	.	8gJ	8ee-J
8BB-'L	8r	8F'L	8E-'L	8ee-L	8bb-L	4BB-	4E-	4B-	4f	8fL	8b-L
8B-'J	8F'	8G'J	8B-'J	8ee-J	(8bb-J	.	.	.	.	8gJ	8ee-J
8BB-'	8F'L	4r	8E-'L	8ee-L	8ggL)	4BB-	4G	4B-	4f	8b-L	8ffL
8r	8B-'J	.	8G'J	8ee-J	8gg'J	.	.	.	.	8ee-J	8ggJ
=70	=70	=70	=70	=70	=70	=70	=70	=70	=70	=70	=70
8BB-'	8BB-'L	8F'L	8E-'	(8ee-TL	(8ggTL	4BB-	4E-	4B-	4f	8ffL	8bb-L
8r	8B-'J	8G'J	8r	8ddJ)	8ffJ)	.	.	.	.	8ee-J	8ggJ
8BB-'L	8r	8G'L	8E-'L	8dd'L	8ff'L	4BB-	4G	4B-	4f	8b-L	8ffL
8B-'J	8F'	8F'J	8B-'J	(8ddtJ	(8ffTJ	.	.	.	.	8gJ	8ee-J
8BB-'	8F'L	4r	8E-'L	8ccL)	8ee-L)	4BB-	4E-	4B-	4f	8fL	8b-L
8r	8B-'J	.	8G'J	8b-'J	8dd'J	.	.	.	.	8gJ	8ee-J
=71	=71	=71	=71	=71	=71	=71	=71	=71	=71	=71	=71
!!pagebreak:original
8BB-'	8BB-'L	8G'L	8E-'	(8b-TL	(8ddtL	4BB-	4G	4B-	4f	8b-L	8ffL
8r	8B-'J	8F'J	8r	8aJ)	8ccJ)	.	.	.	.	8ee-J	8ggJ
8BB-'L	8r	8F'L	8E-'L	8a'L	8cc'L	4BB-	4E-	4B-	4f	8ffL	8bb-L
8B-'J	8F'	8G'J	8B-'J	(8atJ	(8ccTJ	.	.	.	.	8ee-J	8ggJ
8BB-'	8F'L	4r	8E-'L	8fL)	8ffL)	4BB-	4G	4B-	4f	8b-L	8ffL
8r	8B-'J	.	8G'J	8f'J	8ff'J	.	.	.	.	8gJ	8ee-J
=72	=72	=72	=72	=72	=72	=72	=72	=72	=72	=72	=72
8BB-'	8BB-'L	8F'L	8E-'	8gL	(8ffTL	4BB-	4E-	4B-	4f	8fL	8b-L
8r	8B-'J	8G'J	8r	8gJ	8ee-J)	.	.	.	.	8gJ	8ee-J
8BB-'L	8r	8G'L	8E-'L	8gL	8dd'L	4BB-	4G	4B-	4f	8b-L	8ffL
8B-'J	8F'	8F'J	8B-'J	(8gJ	8ee-J	.	.	.	.	8ee-J	8ggJ
8BB-'	8F'L	4r	8E-'L	8fL)	8ee-L	4BB-	4E-	4B-	4f	8ffL	8bb-L
8r	8B-'J	.	8G'J	8f'J	8ee-J	.	.	.	.	8ee-J	8ggJ
=73	=73	=73	=73	=73	=73	=73	=73	=73	=73	=73	=73
8BB-'	8BB-'L	8G'L	8E-'	8fL	(8ee-TL	4BB-	4G	4B-	4f	8b-L	8ffL
8r	8B-'J	8F'J	8r	8fJ	8ddJ)	.	.	.	.	8gJ	8ee-J
8BB-'L	8r	8F'L	8E-'L	8fL	8cc'L	4BB-	4E-	4B-	4f	8fL	8b-L
8B-'J	8F'	8G'J	8B-'J	(8fJ	8ddJ	.	.	.	.	8gJ	8ee-J
8BB-'	8F'L	4r	8E-'L	8e-L)	8ddL	4BB-	4G	4B-	4f	8b-L	8ffL
8r	8B-'J	.	8G'J	8e-'J	8ddJ	.	.	.	.	8ee-J	8ggJ
=74	=74	=74	=74	=74	=74	=74	=74	=74	=74	=74	=74
8BB-'	8BB-'L	8F'L	8E-'	8e-L	(8ddtL	4BB-	4E-	4B-	4f	8ffL	8bb-L
8r	8B-'J	8G'J	8r	8e-J	8ccJ)	.	.	.	.	8ee-J	8ggJ
8BB-'L	8r	8G'L	8E-'L	8e-L	8b-'L	4BB-	4G	4B-	4f	8b-L	8ffL
8B-'J	8F'	8F'J	8B-'J	(8e-J	(8ccJ	.	.	.	.	8gJ	8ee-J
8BB-'	8F'L	4r	8E-'L	8dL)	8ddL)	4BB-	4E-	4B-	4f	8fL	8b-L
8r	8B-'J	.	8G'J	8cJ	8ee-J	.	.	.	.	8gJ	8ee-J
=	=	=	=	=	=	=	=	=	=	=	=
*-	*-	*-	*-	*-	*-	*-	*-	*-	*-	*-	*-
!!!system-decoration: [(s1,s2)][(s3,s4,s5,s6,s7,s8,s9,s10,s11,s12)]
!!!CDT: 1882/06/17-1971/04/06
!!!CBL: Lomonosov (Oranienbaum), Russia
!!!CDL: New York, United States
!!!CNT: Russian, French, American
!!!AGN: Orchestral; Programmatic
!!!MCN: Monteux, Pierre
!!!MDT: 1922/12/22
!!!MGN: Boston Symphony Orchestra
!!!MLC: Boston, Massachusetts, United States of America
!!!MPD: 1922
!!!MPN:
!!!ODT: 1922
!!!PDT: 1924
!!!excerpt-start-measure: 68
!!!excerpt-end-measure: 74
!!!excerpt-start-time: 1:41
!!!excerpt-end-time: 1:46
!!!EEV: 2020/01/22
!!!ONB: Converted from MusicXML on 2020/01/22
